!!!SOCIAL_FUNCTION:	songs used in treatment of the sick
!!!PDT:	1918

Specific Region: Dakotas, Minnesota, Montana, Nebraska
!!!REG: Dakotas and Montana
!!!LING_GROUP: Siouan
!!!LANG: Tone
!!!OTL@ENG: Bear Told Me
!!!ONM: No. 89
**kern
*Imale
*clefF4
*k[b-e-]
*M3/4
*MM80
8d
8d
8d
8d
4d
=1||
*M5/8
[4.d
16d]
16B-
8B-
=2||
*M3/8
8.d
16d
8d
=3||
*M2/4
8d
8B-
4B-
=4||
*M3/4
8d
8d
8d
8d
(16e-
16B-
8B-)
=5||
*M5/8
(4.B-
16A)
16G
8G
=6
8.B-
16B-
8A
8B-
8G
=7||
*M2/4
(2G
=8
2D)
=9||
*M3/4
8G
8G
8G
8G
(16B-
16A
8G)
=10||
*M5/8
[4.G
16G]
16D
8D
=11
8.G
16D
8D
8G
8G
=12||
*M2/4
(2G
=13
2D)
=14||
*M3/4
8d
8d
8d
8d
(16d
8.B-)
=15||
*M3/8
(16B-
[16A
16A]
16G)
8G
=16||
*M5/8
8.B-
16B-
8A
8B-
8G
=17||
*M2/4
(2G
=18
2D)
=19||
*M3/4
8G
8G
8G
8G
(16B-
16A
8G)
=20||
*M5/8
[4.G
16G]
16D
8D
=21
8.G
16D
8D
8G
8G
=22||
*M2/4
(2G
=23
2D)
==
*-
!!!CNT: Native American -- Sioux
!!!MRD: 1911/07//-1914///
!!!OCL: Frances Densmore
!!!YOR1: Teton Sioux Music, Bulletin 61,
!!!YOR2: Bureau of American Ethnology, Smithsonian Institution
!!!PPR: Government Printing Office
!!!PPP: Washington, D.C.
!!!PDT: 1918///
!!!ENC: Craig Stuart Sapp
!!!END: 2002/03/25/
!!!EEV: 2002/03/31/
!!!AGN: Song of Personal Dreams/Song Used in Treatment of the Sick
!!!MPN@@SIO: Wangbli'-waha'chungka
!!!MPN@ENG: Eagle Shield
!!!TXO: Teton Sioux
!!!MLC: Standing Rock Reservation, South Dakota, United States of America
!!!ARL: 45.9/-100.7#
!!!catalog: Catalogue No. 519
!!!PPG: 265
!!!EFL: 89/245
!!!VTS: 1506296969
